resources/lib/oojs-ui/themes/mediawiki/images/icons/listNumbered-ltr.svg

<?xml version="1.0" encoding="utf-8"?>
<svg xmlns="http://www.w3.org/2000/svg" width="24" height="24" viewBox="0 0 24 24">
    <path d="M21 7h-13v-2h13v2zm0 6h-13v-2h13v2zm0 6h-13v-2h13v2zm-17-15h2v4h-1v-3h-1zm-1 6v-1h3v3h-2v1h2v1h-3v-3h2v-1zm3 10h-3v-1h2v-1h-1v-1h1v-1h-2v-1h3z"/>
</svg>

<?xml version="1.0" encoding="utf-8"?>
<svg xmlns="http://www.w3.org/2000/svg" width="24" height="24" viewBox="0 0 24 24">
    <path d="M21 7H8V5h13v2zm0 6H8v-2h13v2zm0 6H8v-2h13v2zM4 4h2v4H5V5H4zm-1 6V9h3v3H4v1h2v1H3v-3h2v-1zm3 10H3v-1h2v-1H4v-1h1v-1H3v-1h3z"/>
</svg>
